X: 7348
T: Cliffs Of Moher, The
R: jig
M: 6/8
K: Adorian
eaa bag|eaf ged|c2A BAG|EFG ABd|
eaa bag|eaf ged|c2A BAG|EFG A3:|
|:efe dBA|efe dBA|GAB dBA|GAB dBd|
[1 efe dBA|efe dBA|GAB dBG|EFG A3:|
[2 efe dee|cee Bee|EFG BAG|EDB, A,3||

